X:1
T:Title
%%score { ( 1 3 ) | ( 2 4 ) }
L:1/8
Q:1/4=108
M:4/4
K:Eb
V:1 treble nm="Grand Piano"
V:3 treble 
V:2 bass 
V:4 bass 
V:1
 G4 F2 A2 | G6 G2 | [CEB]2 [CEA]2 [CE]2 [=B,EF]2 | [B,EG]8 | [B,GB]4 [C_G=A]2 [DG_A]2 | %5
w: Alfred~L.~Field * *|||||
 E2 z2 z2 E2 | [=A,CE]2 [A,DF]2 [A,EG]2 [A,EF]2 | E2 z2 _G4 | G4 F2 A2 | G6 G2 | %10
w: |||||
 [CEB]2 [CEA]2 [CE]2 [CF]2 | [=B,DG]8 | [B,GB]4 [B,FA]2 [B,EG]2 | %13
w: |||
 [C=EGB]2 [CFA]2 [B,_EG]2 [A,CF]2 | z4[K:treble] z2 D2 |[M:8/4][K:bass] [E,G,B,E]8 z8 | %16
w: |||
[M:4/4][K:treble] [A,EA]8 | [B,EG]8 |] %18
w: ||
V:2
 [E,B,E]4 [E,A,E]2 [E,CE]2 | [E,B,E]6 [E,_DE]2 | A,,2 A,,2 A,,2 A,,2 | [E,,E,]8 | %4
 E,2 C,2 D,2 B,,2 | E,2 D,2 [C,G,C]2 .[C,C]2 | [F,,F,]2 [F,,F,]2 [F,,C,]2 [F,,C,]2 | z2 D2 D4 | %8
 [E,B,E]4 [E,A,E]2 [E,CE]2 | [E,B,E]6 [E,_DE]2 | A,,2 A,,2 A,2 A,2 | G,4 F,4 | E,4 D,2 E,_D, | %13
 C,2 F,,2 G,,2 A,,2 | B,,2 =B,,2 _B,,2 z B, |[M:8/4] E,,8 z8 |[M:4/4] z4 z2 =B,2 | [E,,E,]8 |] %18
V:3
 x8 | x8 | x8 | x8 | x8 | G2- [B,G]2 E2 z B, | x8 | [A,-F]4 A,2 B,2 | x8 | x8 | x8 | x8 | x8 | x8 | %14
 [G,B,E]2 [_G,=A,E]2[K:treble] [=G,B,E]2 [_A,F]G |[M:8/4][K:bass] x16 |[M:4/4][K:treble] C6 z2 | %17
 x8 |] %18
V:4
 x8 | x8 | x8 | x8 | x8 | x8 | x8 | B,,8 | x8 | x8 | x8 | x8 | x8 | x8 | z4 z2 B,,2 |[M:8/4] x16 | %16
[M:4/4] A,,8 | x8 |] %18

